X:1
T:Annie Laurie Schottische
T:Annie Laurie Schottische
L:1/8
M:2/4
K:G
V:1 treble 
V:1
 B>c | c/>^c/d/>B/ Gg/>f/ | f/>e/e/>c/ A>G | F/>G/A/>B/ ce | e/>d/d/>c/ BB/>c/ | %5
 d/>^c/d/>B/ Gg/>f/ | f/>e/e/>c/ A>G | F/>G/A/>B/ c/>d/e/>f/ | gb g :| B/A/ | GG gg | f e2 e | %12
 dB BG |{B} A/>G/A/>B/ AB/>A/ | GG gg | f e2 e | d/>g/f/>e/ d/>c/B/>A/ | GG G :: D | G>G A>A | %20
 B/>^A/B/>c/ B>d | g>g a>a | b2 z b/a/ | g>f eg/e/ | d B2 B/>A/ | Gg B>A | (G2 G) :| ab c | %28

